X:1
T:The Same Old Way
T:The Same Old Way
T:Mrs. W. T. Morris
T:W. T. Morris, 1910
T:Public Domain Courtesy of the Cyber Hymnal™
T:Public Domain Courtesy of the Cyber Hymnal™
C:Mrs. W. T. Morris
Z:Public Domain
Z:Courtesy of the Cyber Hymnal™
%%score ( 1 2 ) ( 3 4 )
L:1/8
Q:1/4=107
M:4/4
K:Ab
V:1 treble 
V:2 treble 
V:3 bass 
V:4 bass 
V:1
 [CE][CE] | [CA]2 [CA]2 [CA]2 [CA][DB] | [Ec]2 [Ec]2 [Ec]2 [Ec][EB] | [FA]3 [FA] [DF]2 [DA]2 | %4
w: 1.~We are|travel- ing home by the|good old way, By the|way our fa- thers|
w: 2.~We at|times will chance where the|road- ways cross, There ’tis|Sa- tan will de-|
w: 3.~Ma- ny|stop to look for a|bet- ter way, And are|swal- lowed up in|
w: 4.~’Twas my|fa- ther’s way, ’twas my|mo- ther’s way, And ’twill|be the way for|
w: 5.~Oh, how|glad am I there is|just one way, It is|nar- row, but ’tis|
 [CE]6 [CA][CA] | [EB]2 [EB]2 E2 [Ed][Ed] | [Ec]2 [Ec]2 [CA]2 [Ec][Ec] | [Ee]3 [Fd] [Ec]2 [DB]2 | %8
w: trod; We will|join them there in the|land of day, And for-|ev- er reign with|
w: lay; But we|heed the words of the|still small voice Say- ing,|“Keep the nar- row|
w: night, While the|faith- ful few, by their|stea- dy tread, En- ter|thro’ the gates of|
w: me! When my|jour- ney’s done, and my|crown is won, By the|same old way ’twill|
w: straight; Tho’ it|leads up- hill we mount|up- ward still, T’ward the|heav’n- ly, pear- ly|
 [CA]6 ||"^Refrain" [EA][Ac] | [Ae]2 [Ae]2 [Ae]3 [Af] | [Ae]2 (ec) [EA]2 [EA][EA] | %12
w: God.||||
w: way.”||||
w: light.|’Tis the|same old way, the|same old * way, There is|
w: be.||||
w: gate.||||
 [GB]2 E2 [GB]3 [Ge] | [Ae]4 [Ec]2 [CA][DB] | [Ec]2 [Ec]>[Ec] [Ec]2 (cB) | %15
w: |||
w: |||
w: just one road to|Je- sus— By the|way of the cross of *|
w: |||
w: |||
 [FA]3 [DA] ([DF][CE])[EA][EB] | [Ec] [Ae]2 [Ae] [Ec]2 [DB]2 | [CA]6 |] %18
w: |||
w: |||
w: Cal- va- ry! * We must|tra- vel the same old|way.|
w: |||
w: |||
V:2
 x2 | x8 | x8 | x8 | x8 | x4 E2 x2 | x8 | x8 | x6 || x2 | x8 | x2 A2 x4 | x2 E2 x4 | x8 | x6 E2 | %15
 x8 | x8 | x6 |] %18
V:3
 [A,,A,][A,,A,] | [A,,E,]2 [A,,E,]2 [A,,E,]2 [A,,E,][A,,E,] | %2
 [A,,A,]2 [A,,A,]2 [A,,A,]2 [A,,A,][C,A,] | [D,D]3 [D,D] [D,A,]2 [F,A,]2 | A,6 A,A, | %5
 [E,G,]2 [E,G,]2 [E,G,]2 [E,B,][E,B,] | A,2 A,2 A,2 A,A, | [C,A,]3 [D,A,] [E,A,]2 [E,G,]2 | %8
 [A,,A,]6 || [A,C][A,E] | [A,C]2 [A,C]2 [A,C]3 [A,D] | [A,C]2 (CE) [A,C]2 [A,C][A,C] | %12
 [E,D]2 [E,D]2 [E,D]3 [E,D] | [A,C]4 A,2 [A,,A,][A,,A,] | [A,,A,]2 [A,,A,]>[A,,A,] [A,,A,]2 A,2 | %15
 [D,D]3 [F,A,] A,2 [C,A,][E,G,] | A, [A,C]2 [C,A,] [E,A,]2 [E,G,]2 | [A,,A,]6 |] %18
V:4
 x2 | x8 | x8 | x8 | A,6 A,A, | x8 | A,2 A,2 A,2 A,A, | x8 | x6 || x2 | x8 | x2 A,2 x4 | x8 | %13
 x4 A,2 x2 | x6 (A,,C,) | x4 A,2 x2 | A, x7 | x6 |] %18

